Hydrogen/symbolic/status/audio-volume-muted-symbolic.svg

<?xml version="1.0" encoding="UTF-8" standalone="no"?>
<svg
   width="16"
   height="16"
   version="1.1"
   id="svg8"
   xmlns="http://www.w3.org/2000/svg"
   xmlns:svg="http://www.w3.org/2000/svg">
  <defs
     id="defs12" />
  <path
     d="M 5.292,1.997 H 6.00328 V 14.003 H 5.292 L 2.2905,11.0015 H 3e-4 V 4.9986 H 2.2905 Z M 5.0028,3.7088 2.7126,5.999 H 1.0008 v 4.0019 h 1.7118 l 2.2902,2.2902 z"
     fill="#363636"
     stroke-width="2.001"
     id="path2"
     style="fill:#241f31;stroke-linecap:round;stroke-linejoin:round;paint-order:stroke fill markers" />
  <path
     id="path6"
     style="paint-order:stroke fill markers;fill:#241f31"
     class="error"
     d="M 8.5253906 4.8183594 L 7.8183594 5.5253906 L 10.292969 8 L 7.8183594 10.474609 L 8.5253906 11.181641 L 11 8.7070312 L 13.474609 11.181641 L 14.181641 10.474609 L 11.707031 8 L 14.181641 5.5253906 L 13.474609 4.8183594 L 11 7.2929688 L 8.5253906 4.8183594 z " />
</svg>

<?xml version="1.0" encoding="UTF-8" standalone="no"?>
<svg
   width="16"
   height="16"
   version="1.1"
   id="svg10"
   xmlns="http://www.w3.org/2000/svg"
   xmlns:svg="http://www.w3.org/2000/svg"
   xmlns:rdf="http://www.w3.org/1999/02/22-rdf-syntax-ns#"
   xmlns:cc="http://creativecommons.org/ns#"
   xmlns:dc="http://purl.org/dc/elements/1.1/">
  <defs
     id="defs14" />
  <metadata
     id="metadata2">
    <rdf:RDF>
      <cc:Work
         rdf:about="">
        <dc:format>image/svg+xml</dc:format>
        <dc:type
           rdf:resource="http://purl.org/dc/dcmitype/StillImage" />
      </cc:Work>
    </rdf:RDF>
  </metadata>
  <g
     fill="#363636"
     stroke-linecap="round"
     stroke-linejoin="round"
     stroke-width="2.001"
     style="paint-order:stroke fill markers;fill:#241f31;fill-opacity:0.5"
     aria-label=""
     id="g6">
    <path
       d="m5.292 1.997h0.71128v12.006h-0.71128l-3.0015-3.0015h-2.2902v-6.0029h2.2902zm-0.2892 1.7118-2.2902 2.2902h-1.7118v4.0019h1.7118l2.2902 2.2902z"
       fill="#363636"
       stroke-width="2.001"
       id="path4"
       style="fill:#241f31;fill-opacity:0.5" />
  </g>
  <path
     d="m13.077 0.92624c0.46898 0.46898 0.88325 0.97705 1.2428 1.5242 0.36476 0.54714 0.6722 1.1229 0.92232 1.7274 0.25012 0.59925 0.43771 1.222 0.56277 1.8681 0.13027 0.64094 0.19541 1.2923 0.19541 1.9541 0 0.66178-0.06514 1.3157-0.19541 1.9619-0.12506 0.64094-0.31265 1.2636-0.56277 1.8681-0.25012 0.59925-0.55756 1.1725-0.92232 1.7196-0.35955 0.54714-0.77381 1.0552-1.2428 1.5242l-0.70347-0.70347c0.42208-0.42208 0.79465-0.87805 1.1177-1.3679 0.32829-0.49503 0.60446-1.0135 0.82853-1.5554s0.39342-1.1021 0.50806-1.6805c0.11985-0.58362 0.17978-1.1725 0.17978-1.7665 0-0.59404-0.05993-1.1803-0.17978-1.7587-0.11464-0.58362-0.28399-1.1464-0.50806-1.6883-0.22407-0.54193-0.50024-1.0578-0.82853-1.5476-0.32307-0.49503-0.69564-0.9536-1.1177-1.3757zm-2.1182 2.1182c0.32829 0.32829 0.61749 0.68522 0.86761 1.0708 0.25533 0.38039 0.46898 0.78163 0.64094 1.2037 0.17717 0.42208 0.31005 0.85978 0.39863 1.3131 0.09379 0.45335 0.14069 0.90931 0.14069 1.3679 0 0.46377-0.0469 0.92233-0.14069 1.3757-0.08859 0.44813-0.22146 0.88323-0.39863 1.3053-0.17196 0.42208-0.38561 0.82591-0.64094 1.2115-0.25012 0.38039-0.53932 0.73473-0.86761 1.063l-0.71128-0.71128c0.56277-0.56277 0.99527-1.2115 1.2975-1.9463 0.30744-0.73473 0.46116-1.5007 0.46116-2.298s-0.15372-1.5633-0.46116-2.298c-0.30223-0.73473-0.73473-1.3835-1.2975-1.9463zm-2.126 2.126c0.37518 0.37518 0.66438 0.80768 0.86761 1.2975s0.30484 1.0005 0.30484 1.532c0 0.53151-0.10161 1.0422-0.30484 1.532-0.20323 0.48982-0.49243 0.92232-0.86761 1.2975l-0.70347-0.70347c0.28139-0.28139 0.49764-0.60446 0.64875-0.96922 0.15111-0.36997 0.22667-0.75557 0.22667-1.1568 0-0.40124-0.075557-0.78424-0.22667-1.149-0.15111-0.36997-0.36736-0.69565-0.64875-0.97704z"
     fill="#363636"
     opacity=".35"
     stroke-width="2.001"
     style="paint-order:stroke fill markers;fill:#241f31;opacity:1;fill-opacity:0.5"
     id="path8" />
</svg>
